X:1
T:Arran, 66.66
T:Arran, 66.66
T:Samuel Sebastian Wesley, 1864
T:Public Domain Courtesy of the Cyber Hymnal™
C:Samuel Sebastian Wesley, 1864
Z:Public Domain
Z:Courtesy of the Cyber Hymnal™
%%score ( 1 2 ) ( 3 4 )
L:1/8
Q:1/4=110
M:4/4
K:F
V:1 treble 
V:2 treble 
V:3 bass 
V:4 bass 
V:1
 C2 | [DF]2 [DG]2 [CF]2 [CE]2 | [CF]6 [FA]2 | G2 [CF]2 [CE]2 [=B,D]2 | C6 [EA]2 | %5
 [DG]2 [D^F]2 [DG]2 [DA]2 | [DB]6 [EG]2 | [Fc]2 F2 [FA]2 [EG]2 | F6 |] %9
V:2
 C2 | x8 | x8 | G2 x6 | C6 x2 | x8 | x8 | x2 F2 x4 | F6 |] %9
V:3
 [F,A,]2 | [D,A,]2 [B,,B,]2 [C,A,]2 [C,G,]2 | [F,A,]6 [D,=B,]2 | [E,C]2 [A,C]2 [G,C]2 (G,F,) | %4
 [C,E,]6 [C,A,]2 | [D,B,]2 [D,A,]2 [E,D]2 [^F,C]2 | [G,B,]6 [B,,C]2 | %7
 [A,,C]2 [B,,D]2 [C,C]2 (CB,) | [F,A,]6 |] %9
V:4
 x2 | x8 | x8 | x6 G,,2 | x8 | x8 | x8 | x6 C,2 | x6 |] %9

